public/images/email.svg

<?xml version="1.0" encoding="UTF-8"?>
<svg width="53px" height="53px" viewBox="0 0 53 53" version="1.1" xmlns="http://www.w3.org/2000/svg" xmlns:xlink="http://www.w3.org/1999/xlink">
    <!-- Generator: Sketch 49.2 (51160) - http://www.bohemiancoding.com/sketch -->
    <title>Page 1</title>
    <desc>Created with Sketch.</desc>
    <defs>
        <linearGradient x1="2.07334737%" y1="50%" x2="94.9444901%" y2="79.5219809%" id="linearGradient-1">
            <stop stop-color="#FFA4A4" offset="0%"></stop>
            <stop stop-color="#FFA3A3" offset="0%"></stop>
            <stop stop-color="#FF7A8E" offset="100%"></stop>
        </linearGradient>
    </defs>
    <g id="Page-1" stroke="none" stroke-width="1" fill="none" fill-rule="evenodd">
        <g id="single-location" transform="translate(-1362.000000, -1320.000000)" fill="url(#linearGradient-1)" stroke="url(#linearGradient-1)">
            <g id="Group-2" transform="translate(271.000000, 1317.000000)">
                <path d="M1117.29974,4.40001222 C1103.32754,4.40001222 1092,15.7275507 1092,29.6997557 C1092,43.6719606 1103.32754,54.9994991 1117.29974,54.9994991 C1121.56247,54.9994991 1125.58569,53.9431505 1129.11079,52.0786156 C1129.50829,51.8677844 1129.66202,51.3736523 1129.45119,50.9761652 C1129.24036,50.576463 1128.74623,50.4249288 1128.34874,50.63576 C1125.05011,52.3795307 1121.29236,53.3677949 1117.30006,53.3677949 C1110.76205,53.3677949 1104.84978,50.7192491 1100.56513,46.4367897 C1096.28042,42.1498887 1093.63187,36.2376198 1093.63187,29.6996039 C1093.63187,23.1615879 1096.28042,17.249319 1100.56288,12.9646669 C1104.84978,8.67995857 1110.76205,6.03141277 1117.30006,6.03141277 C1123.83808,6.03141277 1129.75035,8.67995857 1134.035,12.962418 C1138.31971,17.2471264 1140.96601,23.1593391 1140.96601,29.697355 C1140.96601,31.5047687 1140.76396,33.2639441 1140.38181,34.9527864 C1140.06995,36.3100333 1139.38039,37.506936 1138.44261,38.3524534 C1137.50045,39.1979709 1136.32333,39.6986809 1134.95074,39.7008735 C1133.36073,39.7008735 1131.9376,39.0178929 1130.94714,37.9285984 C1130.90102,37.8780889 1130.84392,37.8495395 1130.78902,37.8122027 C1131.03499,37.2609663 1131.17334,36.6504385 1131.17334,36.0069817 L1131.17334,23.4667422 C1131.17334,21.0070449 1129.17922,19.0129191 1126.71952,19.0129191 L1107.87852,19.0151174 C1105.41882,19.0151174 1103.4247,21.0092432 1103.4247,23.4689405 L1103.4247,36.0114288 C1103.4247,38.4711261 1105.41882,40.4652519 1107.87852,40.4652519 L1126.72177,40.4652519 C1127.95162,40.4652519 1129.06509,39.9667232 1129.87108,39.1607353 C1131.15141,40.4981921 1132.9545,41.3371316 1134.95301,41.3371316 C1136.7385,41.3393299 1138.3285,40.6607289 1139.53637,39.5692418 C1140.74862,38.4777546 1141.59194,36.9843389 1141.97408,35.3218646 L1141.97408,35.319672 C1142.38257,33.5100095 1142.6,31.6301261 1142.6,29.6996994 C1142.6,15.7274945 1131.27246,4.399956 1117.30026,4.399956 L1117.29974,4.40001222 Z M1105.88394,21.4728413 C1106.39784,20.9611343 1107.09619,20.6470577 1107.87806,20.6470577 L1126.72131,20.6470577 C1127.50313,20.6470577 1128.20371,20.9611062 1128.71544,21.4728413 C1129.1349,21.8945037 1129.41163,22.445757 1129.50164,23.0584606 L1118.87856,30.1783706 L1118.8566,30.1937416 C1118.39102,30.5297559 1117.84635,30.6944629 1117.29954,30.6966611 C1116.7527,30.6966611 1116.20805,30.5297503 1115.74248,30.1937416 L1115.72052,30.1783706 L1105.09968,23.0607094 C1105.18753,22.445757 1105.46425,21.8945599 1105.8837,21.4728975 L1105.88394,21.4728413 Z M1129.54088,36.0089494 C1129.54088,36.7907677 1129.22684,37.4913457 1128.7151,38.0030752 C1128.2012,38.5147822 1127.50285,38.8288588 1126.72097,38.8288588 L1107.87773,38.8310571 C1107.09591,38.8310571 1106.39533,38.5170086 1105.8836,38.0052735 C1105.37189,37.4913739 1105.05782,36.7930222 1105.05782,36.0111477 L1105.05782,24.9973261 L1114.81115,31.5330931 L1114.81115,31.5308949 C1115.55564,32.0579728 1116.42752,32.3259252 1117.29941,32.3259252 C1118.1691,32.3259252 1119.04318,32.060188 1119.78766,31.5308949 L1119.78986,31.5330931 L1129.54319,24.9973261 L1129.54088,36.0089494 Z" id="Page-1"></path>
            </g>
        </g>
    </g>
</svg>

<svg width="53" height="53" xmlns="http://www.w3.org/2000/svg"><defs><linearGradient x1="2.073%" y1="50%" x2="94.944%" y2="79.522%" id="a"><stop stop-color="#FFA4A4" offset="0%"/><stop stop-color="#FFA3A3" offset="0%"/><stop stop-color="#FF7A8E" offset="100%"/></linearGradient></defs><path d="M1117.3 4.4c-13.972 0-25.3 11.328-25.3 25.3 0 13.972 11.328 25.3 25.3 25.3a25.2 25.2 0 0 0 11.81-2.921.817.817 0 0 0-.761-1.443 23.566 23.566 0 0 1-11.049 2.732 23.592 23.592 0 0 1-16.735-6.931 23.594 23.594 0 0 1-6.933-16.737c0-6.538 2.648-12.45 6.93-16.735 4.288-4.285 10.2-6.934 16.738-6.934s12.45 2.649 16.735 6.931a23.583 23.583 0 0 1 6.931 16.735c0 1.808-.202 3.567-.584 5.256-.312 1.357-1.002 2.554-1.94 3.4a5.134 5.134 0 0 1-3.491 1.348 5.389 5.389 0 0 1-4.004-1.772c-.046-.05-.103-.08-.158-.117a4.419 4.419 0 0 0 .384-1.805v-12.54a4.454 4.454 0 0 0-4.453-4.454l-18.841.002a4.454 4.454 0 0 0-4.454 4.454V36.01a4.454 4.454 0 0 0 4.454 4.454h18.843a4.44 4.44 0 0 0 3.15-1.304 7.018 7.018 0 0 0 5.081 2.176 6.776 6.776 0 0 0 4.583-1.768c1.213-1.091 2.056-2.585 2.438-4.247v-.002c.409-1.81.626-3.69.626-5.62 0-13.973-11.328-25.3-25.3-25.3zm-11.416 17.073a2.806 2.806 0 0 1 1.994-.826h18.843a2.8 2.8 0 0 1 2.781 2.411l-10.623 7.12-.022.016c-.466.336-1.01.5-1.557.503a2.653 2.653 0 0 1-1.558-.503l-.021-.016-10.621-7.117a2.801 2.801 0 0 1 .784-1.588zm23.657 14.536c0 .782-.314 1.482-.826 1.994a2.806 2.806 0 0 1-1.994.826l-18.843.002a2.802 2.802 0 0 1-1.994-.826 2.806 2.806 0 0 1-.826-1.994V24.997l9.753 6.536v-.002a4.295 4.295 0 0 0 4.977 0l.002.002 9.753-6.536-.002 11.012z" transform="translate(-1091 -3)" fill="url(#a)" stroke="url(#a)" fill-rule="evenodd"/></svg>
